src/images/like_button_active.svg

<svg width="22" height="19" viewBox="0 0 22 19" fill="none" xmlns="http://www.w3.org/2000/svg">
<path fill-rule="evenodd" clip-rule="evenodd" d="M20.2991 1.68186C22.567 3.90213 22.567 7.54338 20.2991 9.78586L10.9804 19L1.6841 9.80806C0.606277 8.72013 0 7.27695 0 5.74496C0 4.21297 0.583823 2.76979 1.6841 1.68186C3.92957 -0.560619 7.61215 -0.560619 9.88007 1.70406L10.9804 2.792L12.0806 1.68186C14.3486 -0.560619 18.0311 -0.560619 20.2991 1.68186Z" fill="black"/>
</svg>

<?xml version="1.0"?>
<svg width="22" height="19" xmlns="http://www.w3.org/2000/svg" xmlns:svg="http://www.w3.org/2000/svg">
 <g class="layer">
  <title>Layer 1</title>
  <path clip-rule="evenodd" d="m20.3,1.68c2.27,2.22 2.27,5.86 0,8.11l-9.32,9.21l-9.3,-9.19c-1.07,-1.09 -1.68,-2.53 -1.68,-4.07c0,-1.53 0.58,-2.97 1.68,-4.06c2.25,-2.24 5.93,-2.24 8.2,0.02l1.1,1.09l1.1,-1.11c2.27,-2.24 5.95,-2.24 8.22,0z" fill="red" fill-rule="evenodd" id="svg_1"/>
 </g>
</svg>
